X: 39907
T: Thomas Friel's
R: jig
M: 6/8
K: Dmajor
|:d2d fed|BdB AFE|DFA fed|efe ABc|
d2d fed|BdB AFE|DFA fed|AFE D3:|
|:dcd baf|baf edB|dfb afd|efe edB|
dcd baf|baf edB|AFA fed|AFE D3:|

